Task 1/images/apple.svg

<svg fill="none" height="22" viewBox="0 0 18 22" width="18" xmlns="http://www.w3.org/2000/svg"><g fill="#fff"><path d="m11.8164 4.12447c.5194-.54801.9026-1.14823 1.15-1.80091.239-.65268.3585-1.24421.3585-1.775276 0-.034562-.0021-.078563-.0062-.130544-.0043-.051981-.0061-.095232-.0061-.130544-.0083-.026108-.0186-.073981-.031-.143855-.0123-.0693596-.0226-.1172322-.0309-.143341-1.4508.356793-2.481 1.00078-3.0909 1.93193-.61825.93964-.93976 2.05789-.96449 3.35452.55206-.05246.98069-.12592 1.28599-.22167.4451-.15709.89-.47015 1.3351-.94031z"/><path d="m16.0197 14.2144c-.5688-.861-.8532-1.8313-.8532-2.9109 0-.9831.2677-1.8836.8037-2.70186.2885-.44357.7584-.95702 1.4096-1.54034-.4286-.55669-.8573-.99157-1.2859-1.30535-.7749-.56496-1.6528-.84848-2.6335-.84848-.5853 0-1.2983.14844-2.1391.44409-.8079.29612-1.39726.44357-1.768.44357-.28024 0-.84902-.13055-1.70634-.39159-.86552-.26109-1.59481-.39163-2.18836-.39163-1.41783 0-2.58836.62657-3.51138 1.87994-.93148 1.27056-1.39722 2.89764-1.39722 4.88155 0 2.1058.60586 4.2942 1.81765 6.5657 1.22803 2.2537 2.46859 3.3804 3.72158 3.3804.42039 0 .96421-.1479 1.63192-.4435.6677-.2872 1.25272-.4308 1.75558-.4308.53577 0 1.15797.1393 1.86707.4175.7499.2785 1.327.4175 1.7309.4175 1.0549 0 2.1141-.8527 3.1775-2.5581.6924-1.0875 1.1994-2.1756 1.5209-3.2631-.7336-.2347-1.3846-.783-1.9534-1.6446z"/></g></svg>

<svg width="18" height="22" viewBox="0 0 18 22" fill="none" xmlns="http://www.w3.org/2000/svg">
<path d="M11.8164 4.12447C12.3358 3.57646 12.719 2.97624 12.9664 2.32356C13.2054 1.67088 13.3249 1.07935 13.3249 0.548284C13.3249 0.513722 13.3228 0.469721 13.3187 0.41774C13.3144 0.365759 13.3126 0.322508 13.3126 0.287196C13.3043 0.261088 13.294 0.213215 13.2816 0.143341C13.2693 0.0739814 13.259 0.0261088 13.2507 0C11.7999 0.356793 10.7697 1.00078 10.1598 1.93193C9.54155 2.87157 9.22004 3.98982 9.19531 5.28645C9.74737 5.23399 10.176 5.16053 10.4813 5.06478C10.9264 4.90769 11.3713 4.59463 11.8164 4.12447Z" fill="white"/>
<path d="M16.0197 14.2144C15.4509 13.3534 15.1665 12.3831 15.1665 11.3035C15.1665 10.3204 15.4342 9.4199 15.9702 8.60164C16.2587 8.15807 16.7286 7.64462 17.3798 7.0613C16.9512 6.50461 16.5225 6.06973 16.0939 5.75595C15.319 5.19099 14.4411 4.90747 13.4604 4.90747C12.8751 4.90747 12.1621 5.05591 11.3213 5.35156C10.5134 5.64768 9.92404 5.79513 9.5533 5.79513C9.27306 5.79513 8.70428 5.66458 7.84696 5.40354C6.98144 5.14245 6.25215 5.01191 5.6586 5.01191C4.24077 5.01191 3.07024 5.63848 2.14722 6.89185C1.21574 8.16241 0.75 9.78949 0.75 11.7734C0.75 13.8792 1.35586 16.0676 2.56765 18.3391C3.79568 20.5928 5.03624 21.7195 6.28923 21.7195C6.70962 21.7195 7.25344 21.5716 7.92115 21.276C8.58885 20.9888 9.17387 20.8452 9.67673 20.8452C10.2125 20.8452 10.8347 20.9845 11.5438 21.2627C12.2937 21.5412 12.8708 21.6802 13.2747 21.6802C14.3296 21.6802 15.3888 20.8275 16.4522 19.1221C17.1446 18.0346 17.6516 16.9465 17.9731 15.859C17.2395 15.6243 16.5885 15.076 16.0197 14.2144Z" fill="white"/>
</svg>
